X: 17
T:Kristallen den fina
M:6/8
L:1/8
Q:144
C:anon.
O:Sweden
Z:Transcribed by Frank Nordberg - http://www.musicaviva.com
K:Dm
(D/E/)|"Dm"FFF "C"G>FG|"F"AA(A/B/) "A"(A/G/)(F/E/)(D/E/)|
w:Kris-[ext] tal- len den fi-na som so-len månd'[ext] ski-[ext] na,[ext]
 som[ext]
w:Jag[ext] k\"an- nar en flic- ka i dyg- den den[ext] fi-[ext] na,[ext]
en[ext]
"Dm"FFF "C"G>FG|"F"A3-A2:|d|"Dm"A2AA2G|
w:stj\"ar- nor- na bl\"an- ka i skyn.[ext] Min v\"an, min v\"an och
w:flic- ka i den- na h\"ar byn.[ext]
"Dm"F2F "A"FEd|"Dm"A2A AAG|"Dm"F2(A/G/) "A7"FE(D/E/)|
w:\"al- skogs- blom- ma! Ack, om vi kun- de till- sam- mans[ext] kom- ma
! Och[ext]
"Dm"FFF "C"(G>F)G|"F"A3-A z (D/E/)|"Dm"FFF "Gm"G>FG|
w:jag vo- re v\"an-[ext] nen din,[ext] och[ext] du all- ra k\"a- res- ta
n
"A"A3-A z d|"Dm"AGF "A"(ED)"Gm"A/G/|"Dm"FF"A7"E "Dm"HD2|]
w:min,[ext] du \"a- de- la ros[ext] och f\"or- gyl- lan- de skrin!
w:Och om jag \"an fore till v\"arldens \"anda,
W:S\aa ropar mitt hj\"arta till dig,
W:ja, om jag fore till v\"arldens \"anda
W:S\aa ropar mitt hj\"arta till dig,
W:till dig, min v\"an och \"alskogsblomma,
W:Ack, om vi kunde tillsammans komma!
W:Och jag vore v\"annen din,
W:och[ext] du allra k\"arestan min,
W:du \"adela ros och f\"orgyllande skrin!
W:
W: From "Falaleiro" http://home.t-online.de/home/pheld/homepage.htm

